svg/home_battery.svg

<svg xmlns="http://www.w3.org/2000/svg" viewBox="0 0 24 24"><path d="M12 20H5v-8H2l10-9 2.78 2.5H14v1.67c-1.16.41-2 1.53-2 2.83zm3-11h1V7.5h4V9h1c.55 0 1 .45 1 1v11c0 .55-.45 1-1 1h-6c-.55 0-1-.45-1-1V10c0-.55.45-1 1-1m1 2v3h4v-3z"/></svg>

<svg xmlns="http://www.w3.org/2000/svg" id="mdi-home-battery" viewBox="0 0 24 24"><path d="M12 20L5 20V12H2L12 3L14.78 5.5H14V7.17C12.84 7.58 12 8.7 12 10V20M15 9H16V7.5H20V9H21C21.55 9 22 9.45 22 10V21C22 21.55 21.55 22 21 22H15C14.45 22 14 21.55 14 21V10C14 9.45 14.45 9 15 9M16 11V14H20V11H16Z" /></svg>
